!!!COM:	Japart, Jean
!!!CDT:	~1450//-~1507//
!!!OTL:	T'meiskin
!!!AGN:	Song; Chanson
!!!SCT:	Jap3019
!!!SCA:	Jap3019
!!!voices:	3
**kern	**kern	**kern
*staff3	*staff2	*staff1
*Ivox	*Ivox	*Ivox
*I"Contra	*I"Tenor	*I"Discantus
*I'C	*I'T	*I'D
*clefF4	*clefGv2	*clefG2
*k[b-]	*k[b-]	*k[b-]
*M2/1	*M2/1	*M2/1
*met(C|)	*met(C|)	*met(C|)
=1-	=1-	=1-
1.GG	0r	1g
.	.	2g
2AA	.	2g
=2	=2	=2
2BB-	1G	0g
1C	.	.
.	2G	.
2BB-	2G	.
=3	=3	=3
1.C	0G	0g
4BB-	.	.
4AA	.	.
=4	=4	=4
0GG	0G	1.b-
.	.	4a
.	.	4g
=5	=5	=5
0r	1.B-	0f
.	4A	.
.	4G	.
=6	=6	=6
1.D	0F	1a
.	.	1a
4C	.	.
4BB-	.	.
=7	=7	=7
1AA	1A	1.cc
[1F	1A	.
.	.	2b-
=8	=8	=8
2F]	1.c	1a
2E	.	.
1G	.	[1g
.	2B-	.
=9	=9	=9
1D	1A	1g]
1D	1A	1f#i
=10	=10	=10
1.E-i	[0G	0g
4D	.	.
4C	.	.
=11	=11	=11
2BB-	0G]	1r
1C	.	.
.	.	1g
4BB-	.	.
4AA	.	.
=12	=12	=12
1GG	1r	1b-
[1G	1G	2b-
.	.	2b-
=13	=13	=13
1G]	2B-	1b-
.	2B-	.
1F	1c	[1a
=14	=14	=14
0D	1d	1a]
.	1f	[1dd
=15	=15	=15
0A	1e	1dd]
.	1e	1cc#i
=16	=16	=16
1.B-	[0d	1.dd
2A	.	2cc
=17	=17	=17
1G	0d]	1b-
1F	.	1a
=18	=18	=18
1.G	1r	1.b-
.	1d	.
4F	.	4a
4E	.	4g
=19	=19	=19
2.D	1d	2f
.	.	1b-
4BB-	.	.
1F	2c	.
.	2c	2a
=20	=20	=20
2G	1B-	2b-
1E	.	1g
.	2c	.
[2F	2c	[2a
=21	=21	=21
4F]	1A	4a]
4E	.	4g
4D	.	4f#i
4C	.	4e
1D	1A	1f#i
=22	=22	=22
2.BB-	[0G	0g
4C	.	.
2D	.	.
[2E-i	.	.
=23	=23	=23
2E-]	0G]	1r
4D	.	.
4C	.	.
1BB-	.	1d
=24	=24	=24
1C	1r	1e
1C	1G	1e
=25	=25	=25
2.BB-	1B-	2.d
4C	.	4e
2D	1B-	2f
[2E-i	.	[2g
=26	=26	=26
2E-]	1c	2g]
1C	.	1e
.	1c	.
2F	.	2a
=27	=27	=27
2D	1.d	2f
2.G	.	1b-
4D	.	.
2F	2c	[2a
=28	=28	=28
2G	0B-	2a]
2E	.	4g
.	.	4f
1G	.	1g
=29	=29	=29
1D	0A	1a
1F	.	2r
.	.	2a
=30	=30	=30
1F	1r	1.cc
1F	1A	.
.	.	2b-
=31	=31	=31
1F	1c	1a
2E	1c	2g
[2F	.	[2a
=32	=32	=32
2F]	1c	2a]
2.A	.	2.cc
.	1c	.
4G	.	4b-
[2F	.	[2a
=33	=33	=33
2F]	1c	2a]
4E	.	4g
4D	.	4f
1A	2c	1e
.	2c	.
=34	=34	=34
[0B-	[0d	0d
=35	=35	=35
0B-_	0d]	1r
.	.	1d
=36	=36	=36
1.B-]	1r	1.f
.	1d	.
4A	.	2g
4G	.	.
=37	=37	=37
0F	1.f	2a
.	.	2b-
.	.	[1cc
.	2e	.
=38	=38	=38
0G	1d	2cc]
.	.	2b-
.	1B-	[1b-
=39	=39	=39
0F	1c	1b-]
.	1c	1a
=40	=40	=40
1.BB-	[0B-	0b-
4C	.	.
4D	.	.
=41	=41	=41
2E-	0B-]	1r
2.D	.	.
.	.	1f
4C	.	.
4BB-	.	.
4AA	.	.
=42	=42	=42
1GG	1r	1b-
1D	1F	1a
=43	=43	=43
0E-i	0B-	1g
.	.	1g
=44	=44	=44
1F	1A	1.cc
1G	1G	.
.	.	2b-
=45	=45	=45
2D	1.d	2a
2.G	.	1b-
4D	.	.
2F	2c	2a
=46	=46	=46
1G	1B-	2g
.	.	2.b-
1C	1c	.
.	.	4a
.	.	[2g
=47	=47	=47
0D	0A	2g]
.	.	4f#i
.	.	4e
.	.	1f#i
=48	=48	=48
0GGl	0Gl	0gl
==	==	==
*-	*-	*-
!!!RDF**kern: l=long note in original notation
!!!RDF**kern: i=editorial accidental
!!!ENC:	Chris Gage 09-25-2013
!!!END:	2013/10/20/
!!!EED:	Jesse Rodin
!!!EEV:	2013/12/19/
!!!ONB:	Translated from MusicXML and edited on 2013/12/19/ by Craig Sapp
!!muse2ps: C^@{COM}^i2I150v85,85,120Q8c120
